!!!COM: Fanny (Mendelssohn) Hensel
!!!CNT: Deutsch
!!!TXO: Deutsch
!!!OTL: "Mailied"
!!!LYR: von Goethe, J. W.
!!!OPR:
!!!OPS: Op.
!!!ONM: No.
!!!ENC: Emily Thomas
!!!YOR: Hensel: 16 Songs Fanny Mendelssohn Hensel
!!!YOR: Alfred, 1995
!!!ODT: 1824/
!!NB: Vocal melody and text encoded.
**kern	**silbe
=1	=1
*clefG2	*
*k[]	*
*M3/4	*
*MM[Allegretto]	*
2.r	.
=2	=2
2.r	.
=3	=3
4r	.
8r	.
{8g	{Wie
8ee	herr-
8dd	-lich
=4	=4
4dd	leuch-
8cc	-tet
8b-	mir
8a	die
8g	Na-
=5	=5
4f}	tur!}
8r	.
{8f	{Wie
8a	gla2nzt
8g	die
=6	=6
4g	Son-
8f	-ne!
8a	Wie
8dd	lacht
8cc	die
=7	=7
4cc	Flur!
4b}	|}
4r	.
=8	=8
4r	.
8r	.
{8g	{Es
8g	drin-
8g	-gen
=9	=9
4ee	Blu2-
8ee	-ten
16dd	aus
16cc	|
16b	je-
16a	|
16g	-dem
16f#	|
=10	=10
4g}	Zweig}
8r	.
{8g	{und
8b	tau-
8dd	-send
=11	=11
4ff	Stim-
16ff	-men
16ee	|
16dd	aus
16cc	|
16b	dem
16a	|
16g	Ge-
16f	|
=12	=12
4f	-stra2uch,
8e}	|}
{8ee	{und
8ee	tau-
8ee	-send
=13	=13
4ee	Stim-
16dd#	-men
16ee	|
16cc	aus
16a	|
8e	dem
8f#	Ge-
=14	=14
4g}	-stra2uch,}
4r	.
4r	.
=15	=15
4r	.
8r	.
{8g	{und
8ee	Freud
8cc	und
=16	=16
4b	Won-
8a	-ne
8a	aus
8ff	je-
8dd	-der
=17	=17
4cc	Brust.
8b}	|}
{8b	{O
8dd	Erd,
8cc	o
=18	=18
4cc	Son-
8b}	-ne,}
{8b	{o
8ff	Glu2ch,
8dd	o
=19	=19
4cc	Lust!
8b}	|}
{8g	O
8a	Erd,
8b	o
=20	=20
8cc	Son-
8cc#	|
8dd	|
8ee	|
8ff	|
8ff#	|
=21	=21
[2gg	|
8gg]	|
8gg#	|
=22	=22
4aa}	-ne!}
8r	.
{8ee	{O
16ggq	Erd,
8ff	|
8dd	o
=23	=23
4cc	Son-
8g}	-ne!}
{8g	{O
8ee	Glu2ck,
8dd	o
=24	=24
4cc}	Lust!}
8r	.
{8e	{O
8f	Erd,
8f#	o
=25	=25
4a	Son-
4g}	-ne!}
8r	.
{8g	{O
=26	=26
8ff	Glu2ck,
28ee	|
28dd	|
28cc#	|
28dd	|
28ee	|
28ff	|
28ff#	|
28gg	|
28gg#	|
28aa	|
28ee	|
28ffn	|
28dd	|
28a	|
8b	o
=27	=27
4cc}	Lust!}
4r	.
4r	.
=28	=28
2.r	.
=29	=29
4r	.
8r	.
{8g	{So
8ee	liebt
8dd	die
=30	=30
4dd	ler-
8cc	-che
8b-	Ge-
8a	-sang
8g	und
=31	=31
4f}	Luft}
8r	.
{8f	{und
8a	Mor-
8g	-gen-
=32	=32
4g	blu-
8f	-men
8a	den
8dd	Him-
8cc	-mels-
=33	=33
4cc	-duft,
4b}	|}
4r	.
=34	=34
4r	.
8r	.
{8g	{wie
8g	ich
8g	dich
=35	=35
4ee	lie-
8ee	-be
16dd	mit
16cc	|
16b	war-
16a	|
16g	-mem
16f#	|
=36	=36
4g}	Blut,}
8r	.
{8g	{wie
8b	ich
8dd	dich
=37	=37
4ff	lie-
16ff	-be
16ee	|
16dd	mit
16cc	|
16b	war-
16a	|
16g	-mem
16f	|
=38	=38
4f	Blut,
8e}	|}
{8ee	{die
8ee	du
8ee	mir
=39	=39
4ee	Ju-
16dd#	-gend
16ee	|
16cc	und
16a	|
8e	Freud
8f#	und
=40	=40
4g}	Mut}
4r	.
4r	.
=41	=41
4r	.
8r	.
{8g	{zu
8ee	neu-
8cc	-en
=42	=42
4b	Lie-
8aa	-dern
8a	und
8ff	Ta2n-
8dd	-zen
=43	=43
4cc	gibst,
8b}	|}
{8b	{Sei
8dd	e-
8cc	-wig
=44	=44
4cc	glu2ck-
8b	-lich,
8b	wie
8ff	du
8dd	mich
=45	=45
4cc	liebst!
8b}	|}
{8g	{Sei
8a	e-
8b	-wig
=46	=46
8cc	glu2ck
8cc#	|
8dd	|
8ee	|
8ff	|
8ff#	|
=47	=47
[2gg	|
8gg]	|
8gg#	|
=48	=48
4aa}	lich,}
8r	.
{8ee	{sei
16ggq	e-
8ff	|
8dd	-wig
=49	=49
4cc	glu2ck-
8g	-lich
8g	wie
8ee	du
8dd	mich
=50	=50
4cc}	liebst,}
8r	.
{8e	{wie
8f	du
8f#	mich
=51	=51
4a	liebst,
4g}	|}
8r	.
{8g	{wie
=52	=52
8ff	du
28ee	|
28dd	|
28cc#	|
28dd	|
28ee	|
28ff	|
28ff#	|
28gg	|
28gg#	|
28aa	|
28ee	|
28ffn	|
28dd	|
28a	|
8b	mich
=53	=53
4cc}	liebst!}
4r	.
4r	.
==	==
*-	*-
